svgs/sharp-solid/screen-users.svg

<svg xmlns="http://www.w3.org/2000/svg" viewBox="0 0 640 512"><!--! Font Awesome Pro 6.6.0 by @fontawesome - https://fontawesome.com License - https://fontawesome.com/license (Commercial License) Copyright 2024 Fonticons, Inc. --><path d="M32 0L64 0 576 0l32 0 0 32 0 216.4c-17-15.2-39.4-24.4-64-24.4l0-160L96 64l0 160c-24.6 0-47 9.2-64 24.4L32 32 32 0zm0 320a64 64 0 1 1 128 0A64 64 0 1 1 32 320zm224 0a64 64 0 1 1 128 0 64 64 0 1 1 -128 0zm288-64a64 64 0 1 1 0 128 64 64 0 1 1 0-128zM416 512l-192 0 32-96 128 0 32 96zM32 416l128 0 32 96L0 512l32-96zm608 96l-192 0 32-96 128 0 32 96z"/></svg>

<svg xmlns="http://www.w3.org/2000/svg" viewBox="0 0 640 512"><!--! Font Awesome Pro 6.4.2 by @fontawesome - https://fontawesome.com License - https://fontawesome.com/license (Commercial License) Copyright 2023 Fonticons, Inc. --><path d="M32 0H64 576h32V32 248.4c-17-15.2-39.4-24.4-64-24.4V64H96V224c-24.6 0-47 9.2-64 24.4V32 0zm0 320a64 64 0 1 1 128 0A64 64 0 1 1 32 320zm224 0a64 64 0 1 1 128 0 64 64 0 1 1 -128 0zm288-64a64 64 0 1 1 0 128 64 64 0 1 1 0-128zM416 512H224l32-96H384l32 96zM32 416H160l32 96H0l32-96zm608 96H448l32-96H608l32 96z"/></svg>
